X: 1
T: Lady Forbes
M: 4/4
L: 1/8
R: reel
K: Dmaj
DFAd BAGF|Eeed cAGE|DFAd BAGF|GBAG FDDD|
DFAd BAGF|Eeef gecA|DFAd BAGF|GBAG FD D2:|
|:dcdA dfed|cAeA fAeA|dcdA dfed|cdef dcBA|
dcdA dfed|cdef gfec|dBAG FAdB|AGFE FD D2:|
